lib/brands/icons/tumblr.svg

<svg xmlns="http://www.w3.org/2000/svg" fill="none" aria-hidden="true" viewBox="0 0 48 48"><g id="tumblr-Icon"><path id="Vector" fill="#303D4D" d="M33.5708 35.9487C32.8273 36.3034 31.4043 36.612 30.3421 36.6401C27.1414 36.7263 26.5201 34.3914 26.4921 32.6959V20.2439H34.5248V14.1893H26.5221V4H20.6619C20.5657 4 20.3973 4.08418 20.3753 4.29862C20.0326 7.41713 18.5715 12.8905 12.5049 15.0771V20.2439H16.5533V33.3152C16.5533 37.7885 19.8542 44.1458 28.5684 43.9975C31.5065 43.9473 34.7713 42.7148 35.4948 41.6546L33.5708 35.9487Z"/></g></svg>

<svg xmlns="http://www.w3.org/2000/svg" fill="none" aria-hidden="true" viewBox="0 0 48 48"><path fill="#303D4D" d="M33.57 35.949c-.743.354-2.166.663-3.228.691-3.2.086-3.822-2.249-3.85-3.944V20.244h8.033v-6.055h-8.003V4h-5.86c-.096 0-.265.084-.287.299-.342 3.118-1.803 8.591-7.87 10.778v5.167h4.048v13.071c0 4.474 3.301 10.83 12.015 10.683 2.938-.05 6.203-1.283 6.927-2.343l-1.924-5.706Z"/></svg>
